assets/icons/navigation_bar_icons/favorite_outline.svg

<svg viewBox="0 0 128 128" xmlns="http://www.w3.org/2000/svg"><path d="m116.22 16.68c-8.22-7.88-21.06-11.8-32.78-9.97-8.44 1.29-15.27 5.55-19.37 11.97-4-6.53-10.62-10.84-18.93-12.22-11.61-1.91-25 2.19-33.37 10.21a38.19 38.19 0 0 0 -11.77 27.38 39.61 39.61 0 0 0 11.74 28.6l47.26 47.29a7 7 0 0 0 9.94 0l47.29-47.3a39.61 39.61 0 0 0 11.77-28.59 38.19 38.19 0 0 0 -11.78-27.37zm-4.22 51.72-47.27 47.3a1 1 0 0 1 -1.46 0l-47.27-47.3a33.66 33.66 0 0 1 -10-24.29 32.23 32.23 0 0 1 9.94-23.11c5.89-5.67 14.78-9 23.29-9a30.38 30.38 0 0 1 4.94.4c5 .82 11.67 3.32 15.42 10.56a5.06 5.06 0 0 0 4.41 2.72 4.92 4.92 0 0 0 4.34-2.58c3.89-7.2 10.82-9.66 15.94-10.46 9.77-1.52 20.9 1.84 27.7 8.37a32.23 32.23 0 0 1 10.02 23.1 33.66 33.66 0 0 1 -10 24.29z"/></svg>

<?xml version="1.0" ?><svg data-name="Livello 1" id="Livello_1" viewBox="0 0 128 128" xmlns="http://www.w3.org/2000/svg"><title/><path d="M116.22,16.68C108,8.8,95.16,4.88,83.44,6.71,75,8,68.17,12.26,64.07,18.68c-4-6.53-10.62-10.84-18.93-12.22-11.61-1.91-25,2.19-33.37,10.21A38.19,38.19,0,0,0,0,44.05,39.61,39.61,0,0,0,11.74,72.65L59,119.94a7,7,0,0,0,9.94,0l47.29-47.3A39.61,39.61,0,0,0,128,44.05,38.19,38.19,0,0,0,116.22,16.68ZM112,68.4,64.73,115.7a1,1,0,0,1-1.46,0L16,68.4A33.66,33.66,0,0,1,6,44.11,32.23,32.23,0,0,1,15.94,21c5.89-5.67,14.78-9,23.29-9a30.38,30.38,0,0,1,4.94.4c5,.82,11.67,3.32,15.42,10.56A5.06,5.06,0,0,0,64,25.68h0a4.92,4.92,0,0,0,4.34-2.58h0c3.89-7.2,10.82-9.66,15.94-10.46,9.77-1.52,20.9,1.84,27.7,8.37A32.23,32.23,0,0,1,122,44.11,33.66,33.66,0,0,1,112,68.4Z"/></svg>
